X:1
T:Title
%%score { ( 1 3 ) | ( 2 4 ) }
L:1/8
Q:1/4=100
M:4/4
K:G
V:1 treble nm="Grand Piano"
V:3 treble 
V:2 bass 
V:4 bass 
V:1
 DGAB d2 [G,B,G]2 | z4 [Fd]4 | [Ad]4 [_Bd]4 | [Bd]6 z2 | GFGA G2 E2 | z4 A4 | [Bg]4 [^cg]4 | %7
w: I.~H.~Meredith * * * * *|||||||
 [df]6 z2 | dcAF E2 F2 | G2 B2 z2 B,2 | dcAF G2 [EA]2 | [^DB]6 z2 | DGAB d2 e2 | d2 c2 E2 [^DGc]2 | %14
w: |||||||
 [DGB]4 [CDFA]4 | [B,DG]6 z2 | [DGBd]4 [DG]4 | [DF]G [DFA]2 [df]g [dfa]2 | [DAd]4 [DFA]4 | %19
w: |||||
 [DG]A B2 [dg]a [db]2 | [=FBd]4 [DFG]4 | [EGc][Gd] [EGe]2 [eac'][bd'] [ec'e']2 | %22
w: |||
 [Gd]2 [Gd]2 [A,CDF]2 [A,CDF]2 | [B,DG]6 z2 |] %24
w: ||
V:2
 G,,2 [D,G,B,]2 B,,2 D,2 | A,,2 [D,F,C]2 D,,2 D,2 | F,,2 D,2 D,,2 D,2 | %3
 G,,2 [D,G,][D,G,] [D,G,]2 [D,G,]2 | B,,2 [D,G,B,]2 _B,,2 [D,G,_B,]2 | %5
 A,,2 [D,F,A,]2 [F,A,D]2 [D,F,]2 | E,,2 E,2 A,,2 E,2 | D,,2 [D,F,][D,F,] [D,F,]2 [D,F,]2 | %8
 D,,2 [D,F,C]2 D,,2 [D,F,C]2 | G,,2 [D,G,B,]2 B,,2 [D,G,]2 | D,,2 [D,F,C]2 [E,G,B,]2 [C,E,]2 | %11
 [B,,F,]2 F,2 B,2 F,2 | G,,2 [D,G,B,]2 B,,2 [=F,G,B,]2 | C,2 [E,G,C]2 [E,G,C]2 A,,2 | %14
 D,,2 D,E, F,E, D,2 | G,2 D,2 G,,2 z2 | A,,2 D,2 B,,2 D,2 | %17
 z D [D,F,C]2 z[K:treble] d[K:bass] [D,F,C]2 | F,,2 D,2 D,,2 D,2 | %19
 z D [D,G,B,D]2 z[K:treble] d[K:bass] [D,G,B,]2 | G,,2 G,2 B,,2 G,2 | %21
 z E [E,G,C]2 z[K:treble] e[K:bass] [E,A,C]2 | [D,D]2 [D,B,D]2 D,2 D,2 | G,,2 D,2 G,,2 z2 |] %24
V:3
 x8 | [Gd]2 [Fd]2 z2 [F,C]2 | z2 [F,C]2 z2 [F,C]2 | z2 B,B, B,2 B,2 | x8 | F2 A2 z2 A,2 | %6
 z2 [G,B,]2 z2 [G,A,]2 | z2 A,A, A,2 A,2 | x8 | z4 D4 | x8 | x8 | x8 | x8 | x8 | x8 | %16
 z2 [G,B,]2 z2 [G,B,]2 | x8 | z2 [F,C]2 z2 [F,C]2 | x8 | z2 B,2 z2 B,2 | x8 | x8 | G,2 z2 z4 |] %24
V:4
 x8 | x8 | x8 | x8 | x8 | x8 | x8 | x8 | x8 | x8 | x8 | x8 | x8 | x8 | x8 | x8 | x8 | %17
 A,,2 z2 D,,2[K:treble][K:bass] z2 | x8 | G,,2 z2 B,,2[K:treble][K:bass] z2 | x8 | %21
 C,2 z2 A,,2[K:treble][K:bass] z2 | x8 | x8 |] %24

